X: 498
T: Castle down
%R: jig
B: "Preston's Twenty Four Country Dances for the Year 1803", Tho. Preston, ed. p.209 #2
F: http://folkopedia.efdss.org/images/archive/0/02/20121211105513%21Preston_24_1803.PDF
F: http://folkopedia.efdss.org/wiki/File:Preston_24_1803.PDF
Z: 2014 John Chambers <jc:trillian.mit.edu>
M: 6/8
L: 1/8
K: G
% - - - - - - - - - - - - - - - - - - - - - - - - -
|:\
G2A B2G | c2A B2G | BdB AGF | E3 E2F |\
G2A B2G | c2A B2G | BdB AFA | D3 D3 :|
|:\
B2c d2B | e2c d2B | efg dcB | A3 ABc |\
dcB edc | fed gfe | dcB AGF | G3 G2 :|
% - - - - - - - - - - - - - - - - - - - - - - - - -
%%begintext align
%% 1st Cu. set & turn with both hands, foot
%% it outsides, lead down the middle, up
%% again & cast off.
%%endtext

%%sep 1 1 500
%%sep 1 1 500
